assets/home-two-img/service_3_4.svg

<svg width="50" height="50" viewBox="0 0 50 50" fill="none" xmlns="http://www.w3.org/2000/svg">
<g clip-path="url(#clip0_457_26080)">
<path d="M17.1875 15.625H18.75V17.1875H17.1875V15.625Z" fill="#3E66F3"/>
<path d="M20.3125 15.625H21.875V17.1875H20.3125V15.625Z" fill="#3E66F3"/>
<path d="M23.4375 15.625H25V17.1875H23.4375V15.625Z" fill="#3E66F3"/>
<path d="M17.1875 25H18.75V26.5625H17.1875V25Z" fill="#3E66F3"/>
<path d="M20.3125 25H21.875V26.5625H20.3125V25Z" fill="#3E66F3"/>
<path d="M23.4375 25H25V26.5625H23.4375V25Z" fill="#3E66F3"/>
<path d="M38.6328 27.8932L38.2812 27.7158L37.9297 27.8939C35.8258 28.9549 33.5656 29.5525 31.2117 29.6682L30.4688 29.7041V34.6869C30.4688 39.6268 33.4203 44.0088 37.9891 45.8502L38.2812 45.9674L38.5734 45.8494C43.1422 44.008 46.0938 39.626 46.0938 34.6861V29.7033L45.3508 29.6666C42.9977 29.5518 40.7383 28.9549 38.6328 27.8932ZM44.5312 34.6861C44.5312 38.8791 42.0883 42.6096 38.2812 44.2775C34.4742 42.6096 32.0312 38.8791 32.0312 34.6861V31.176C34.2078 30.9814 36.3055 30.4057 38.2812 29.4603C40.257 30.4057 42.3555 30.9814 44.5312 31.176V34.6861Z" fill="#3E66F3"/>
<path d="M46.1727 26.5625C44.3609 26.5625 42.575 26.1977 40.9156 25.5023C41.2344 24.0594 41.4062 22.5812 41.4062 21.0938C41.4062 9.89375 32.2945 0.78125 21.0938 0.78125C9.89297 0.78125 0.78125 9.89375 0.78125 21.0938C0.78125 32.2938 9.89297 41.4062 21.0938 41.4062C23.5906 41.4062 26.0203 40.9555 28.3305 40.0727C29.9469 44.3609 33.4516 47.7695 38.0516 49.1844L38.2812 49.2547L38.5109 49.1836C44.9156 47.2141 49.2188 41.3875 49.2188 34.6859V26.5625H46.1727ZM39.1727 24.6234L38.2812 24.0891L37.3898 24.6234C35.5805 25.7094 33.5453 26.3531 31.4508 26.5172C31.775 25.0172 31.9602 23.4641 32.0062 21.875H39.8187C39.7781 22.857 39.6648 23.832 39.4727 24.7906C39.3734 24.7344 39.2711 24.6828 39.1727 24.6234ZM21.1547 39.5484C21.1328 39.5672 21.1148 39.582 21.093 39.6008C21.0664 39.5781 21.0445 39.5594 21.0172 39.5367C19.1797 37.9898 16.1391 35.4148 14.0367 31.2508H27.3438V32.707C25.325 36.0227 22.8227 38.1422 21.1547 39.5484ZM27.3438 26.5625V29.6875H13.3227C12.4344 27.4945 11.8391 24.9055 11.7477 21.875H30.4445C30.3945 23.4859 30.1922 25.0555 29.8398 26.5625H27.3438ZM2.36328 21.875H10.1844C10.2688 24.8758 10.8156 27.4633 11.6406 29.6875H4.4375C3.21562 27.3289 2.47969 24.6812 2.36328 21.875ZM21.0938 2.57891C22.282 3.60859 25.4508 6.58984 27.7781 10.9375H14.4094C16.7367 6.58984 19.9055 3.60859 21.0938 2.57891ZM28.5461 12.5C29.5844 14.8094 30.3305 17.4375 30.4477 20.3125H11.7398C11.857 17.4375 12.6031 14.8094 13.6414 12.5H28.5461ZM39.8242 20.3125H32.0109C31.9055 17.4438 31.2336 14.8234 30.2734 12.5H37.75C38.9719 14.8586 39.7078 17.5063 39.8242 20.3125ZM10.1766 20.3125H2.36328C2.47891 17.5063 3.21562 14.8586 4.4375 12.5H11.9141C10.9539 14.8234 10.282 17.4438 10.1766 20.3125ZM36.8422 10.9375H29.5672C27.6453 7.04141 25.0266 4.12891 23.3133 2.47969C28.9812 3.15156 33.8805 6.36016 36.8422 10.9375ZM18.8742 2.47969C17.1609 4.12891 14.5422 7.04141 12.6203 10.9375H5.34531C8.30703 6.36016 13.2063 3.15156 18.8742 2.47969ZM5.34531 31.25H12.2867C14.1219 35.2352 16.7805 37.9164 18.807 39.6992C13.1672 39.0102 8.29531 35.8094 5.34531 31.25ZM23.3719 39.7016C24.5703 38.6437 26.0102 37.2406 27.3734 35.432C27.4258 36.5125 27.5852 37.5664 27.8516 38.5812C26.4055 39.1422 24.907 39.5156 23.3719 39.7016ZM47.6562 34.6859C47.6562 40.6164 43.8992 45.7828 38.2812 47.618C32.6633 45.7828 28.9062 40.6172 28.9062 34.6859V28.125H30.3898C30.4141 28.125 30.4383 28.1227 30.4633 28.1227H31.0656L31.0711 28.1016C33.582 27.9883 36.032 27.2602 38.1937 25.9633L38.2812 25.9109L38.368 25.9633C40.7258 27.3773 43.4242 28.125 46.1727 28.125H47.6562V34.6859Z" fill="#3E66F3"/>
<path d="M35.7087 36.5571L34.604 37.6618L37.5001 40.5579L43.9118 34.1462L42.8071 33.0415L37.5001 38.3485L35.7087 36.5571Z" fill="#3E66F3"/>
<path d="M44.426 18.9268C43.5721 19.2775 42.9689 20.1158 42.9689 21.0939C42.9689 22.3861 44.0205 23.4377 45.3127 23.4377C46.6049 23.4377 47.6564 22.3861 47.6564 21.0939C47.6564 20.0377 46.9502 19.1533 45.9885 18.8611C45.4377 12.6432 42.615 6.90879 37.9869 2.66504L36.9307 3.8166C41.2518 7.7791 43.8939 13.126 44.426 18.9268ZM45.3127 21.8752C44.8814 21.8752 44.5314 21.5244 44.5314 21.0939C44.5314 20.6635 44.8814 20.3127 45.3127 20.3127C45.7439 20.3127 46.0939 20.6635 46.0939 21.0939C46.0939 21.5244 45.7439 21.8752 45.3127 21.8752Z" fill="#3E66F3"/>
<path d="M36.746 1.59834C36.2983 1.23896 35.8335 0.890527 35.3632 0.563965L34.4702 1.84678C34.9108 2.15303 35.3468 2.47959 35.7655 2.81631L36.746 1.59834Z" fill="#3E66F3"/>
<path d="M1.93115 34.5913L0.653809 35.4913C0.97959 35.953 1.32959 36.4155 1.69521 36.8655L2.9085 35.8796C2.56475 35.4585 2.23584 35.0249 1.93115 34.5913Z" fill="#3E66F3"/>
<path d="M24.2186 42.9687C23.2115 42.9687 22.3584 43.6101 22.0279 44.503C21.717 44.5147 21.4068 44.5312 21.0936 44.5312C14.5959 44.5312 8.33262 41.7983 3.91074 37.0327L2.76465 38.0952C7.48184 43.1788 14.1623 46.0937 21.0936 46.0937C21.4014 46.0937 21.7053 46.0765 22.01 46.0655C22.3256 46.9874 23.1912 47.6562 24.2186 47.6562C25.5107 47.6562 26.5623 46.6046 26.5623 45.3124C26.5623 44.0202 25.5107 42.9687 24.2186 42.9687ZM24.2186 46.0937C23.7873 46.0937 23.4373 45.7429 23.4373 45.3124C23.4373 44.8819 23.7873 44.5312 24.2186 44.5312C24.6498 44.5312 24.9998 44.8819 24.9998 45.3124C24.9998 45.7429 24.6498 46.0937 24.2186 46.0937Z" fill="#3E66F3"/>
</g>
<defs>
<clipPath id="clip0_457_26080">
<rect width="50" height="50" fill="white"/>
</clipPath>
</defs>
</svg>

<?xml version="1.0" encoding="utf-8"?>
<!-- Generator: Adobe Illustrator 24.0.1, SVG Export Plug-In . SVG Version: 6.00 Build 0)  -->
<svg version="1.1" id="Layer_1" xmlns="http://www.w3.org/2000/svg" xmlns:xlink="http://www.w3.org/1999/xlink" x="0px" y="0px"
	 viewBox="0 0 50 50" style="enable-background:new 0 0 50 50;" xml:space="preserve">
<style type="text/css">
	.st0{fill:#11CDBD;}
</style>
<g>
	<path class="st0" d="M17.2,15.6h1.6v1.6h-1.6V15.6z"/>
	<path class="st0" d="M20.3,15.6h1.6v1.6h-1.6V15.6z"/>
	<path class="st0" d="M23.4,15.6H25v1.6h-1.6V15.6z"/>
	<path class="st0" d="M17.2,25h1.6v1.6h-1.6V25z"/>
	<path class="st0" d="M20.3,25h1.6v1.6h-1.6V25z"/>
	<path class="st0" d="M23.4,25H25v1.6h-1.6V25z"/>
	<path class="st0" d="M38.6,27.9l-0.4-0.2l-0.4,0.2c-2.1,1.1-4.4,1.7-6.7,1.8l-0.7,0v5c0,4.9,3,9.3,7.5,11.2l0.3,0.1l0.3-0.1
		c4.6-1.8,7.5-6.2,7.5-11.2v-5l-0.7,0C43,29.6,40.7,29,38.6,27.9z M44.5,34.7c0,4.2-2.4,7.9-6.3,9.6c-3.8-1.7-6.3-5.4-6.3-9.6v-3.5
		c2.2-0.2,4.3-0.8,6.3-1.7c2,0.9,4.1,1.5,6.3,1.7V34.7z"/>
	<path class="st0" d="M46.2,26.6c-1.8,0-3.6-0.4-5.3-1.1c0.3-1.4,0.5-2.9,0.5-4.4c0-11.2-9.1-20.3-20.3-20.3
		C9.9,0.8,0.8,9.9,0.8,21.1c0,11.2,9.1,20.3,20.3,20.3c2.5,0,4.9-0.5,7.2-1.3c1.6,4.3,5.1,7.7,9.7,9.1l0.2,0.1l0.2-0.1
		c6.4-2,10.7-7.8,10.7-14.5v-8.1H46.2z M39.2,24.6l-0.9-0.5l-0.9,0.5c-1.8,1.1-3.8,1.7-5.9,1.9c0.3-1.5,0.5-3.1,0.6-4.6h7.8
		c0,1-0.2,2-0.3,2.9C39.4,24.7,39.3,24.7,39.2,24.6z M21.2,39.5C21.1,39.6,21.1,39.6,21.2,39.5c-0.1,0-0.1,0-0.1,0
		c-1.8-1.5-4.9-4.1-7-8.3h13.3v1.5C25.3,36,22.8,38.1,21.2,39.5z M27.3,26.6v3.1h-14c-0.9-2.2-1.5-4.8-1.6-7.8h18.7
		c0,1.6-0.3,3.2-0.6,4.7H27.3z M2.4,21.9h7.8c0.1,3,0.6,5.6,1.5,7.8H4.4C3.2,27.3,2.5,24.7,2.4,21.9z M21.1,2.6c1.2,1,4.4,4,6.7,8.4
		H14.4C16.7,6.6,19.9,3.6,21.1,2.6z M28.5,12.5c1,2.3,1.8,4.9,1.9,7.8H11.7c0.1-2.9,0.9-5.5,1.9-7.8H28.5z M39.8,20.3H32
		c-0.1-2.9-0.8-5.5-1.7-7.8h7.5C39,14.9,39.7,17.5,39.8,20.3z M10.2,20.3H2.4c0.1-2.8,0.9-5.5,2.1-7.8h7.5
		C11,14.8,10.3,17.4,10.2,20.3z M36.8,10.9h-7.3C27.6,7,25,4.1,23.3,2.5C29,3.2,33.9,6.4,36.8,10.9z M18.9,2.5
		c-1.7,1.6-4.3,4.6-6.3,8.5H5.3C8.3,6.4,13.2,3.2,18.9,2.5z M5.3,31.3h6.9c1.8,4,4.5,6.7,6.5,8.4C13.2,39,8.3,35.8,5.3,31.3z
		 M23.4,39.7c1.2-1.1,2.6-2.5,4-4.3c0.1,1.1,0.2,2.1,0.5,3.1C26.4,39.1,24.9,39.5,23.4,39.7z M47.7,34.7c0,5.9-3.8,11.1-9.4,12.9
		c-5.6-1.8-9.4-7-9.4-12.9v-6.6h1.5c0,0,0,0,0.1,0h0.6l0,0c2.5-0.1,5-0.8,7.1-2.1l0.1-0.1l0.1,0.1c2.4,1.4,5.1,2.2,7.8,2.2h1.5V34.7
		z"/>
	<path class="st0" d="M35.7,36.6l-1.1,1.1l2.9,2.9l6.4-6.4L42.8,33l-5.3,5.3L35.7,36.6z"/>
	<path class="st0" d="M44.4,18.9c-0.9,0.4-1.5,1.2-1.5,2.2c0,1.3,1.1,2.3,2.3,2.3c1.3,0,2.3-1.1,2.3-2.3c0-1.1-0.7-1.9-1.7-2.2
		c-0.6-6.2-3.4-12-8-16.2l-1.1,1.2C41.3,7.8,43.9,13.1,44.4,18.9z M45.3,21.9c-0.4,0-0.8-0.4-0.8-0.8c0-0.4,0.4-0.8,0.8-0.8
		c0.4,0,0.8,0.4,0.8,0.8C46.1,21.5,45.7,21.9,45.3,21.9z"/>
	<path class="st0" d="M36.7,1.6c-0.4-0.4-0.9-0.7-1.4-1l-0.9,1.3c0.4,0.3,0.9,0.6,1.3,1L36.7,1.6z"/>
	<path class="st0" d="M1.9,34.6l-1.3,0.9c0.3,0.5,0.7,0.9,1,1.4l1.2-1C2.6,35.5,2.2,35,1.9,34.6z"/>
	<path class="st0" d="M24.2,43c-1,0-1.9,0.6-2.2,1.5c-0.3,0-0.6,0-0.9,0c-6.5,0-12.8-2.7-17.2-7.5l-1.1,1.1c4.7,5.1,11.4,8,18.3,8
		c0.3,0,0.6,0,0.9,0c0.3,0.9,1.2,1.6,2.2,1.6c1.3,0,2.3-1.1,2.3-2.3C26.6,44,25.5,43,24.2,43z M24.2,46.1c-0.4,0-0.8-0.4-0.8-0.8
		s0.4-0.8,0.8-0.8c0.4,0,0.8,0.4,0.8,0.8S24.6,46.1,24.2,46.1z"/>
</g>
</svg>
